src/assets/img/icons/duotone-icons/Shopping/Barcode-scan.svg

<svg width="24" height="24" viewBox="0 0 24 24" xmlns="http://www.w3.org/2000/svg"><g fill="none" fill-rule="evenodd"><path d="M0 0h24v24H0z"/><path d="M15 9h-2V5h2v4zm0 6v5h-2v-5h2zM5 9H2V6a1 1 0 011-1h2v4zm0 6v5H3a1 1 0 01-1-1v-4h3zm13-6h-2V5h2v4zm0 6v5h-2v-5h2zm4-6h-2V5h1a1 1 0 011 1v3zm0 6v4a1 1 0 01-1 1h-1v-5h2z" fill="#335EEA"/><path d="M9 9H7V5h2v4zm0 6v5H7v-5h2z" fill="#335EEA" opacity=".3"/><rect fill="#335EEA" opacity=".3" y="11" width="24" height="2" rx="1"/></g></svg>

<?xml version="1.0" encoding="UTF-8"?>
<svg width="24px" height="24px" viewBox="0 0 24 24" version="1.1" xmlns="http://www.w3.org/2000/svg" xmlns:xlink="http://www.w3.org/1999/xlink">
    <!-- Generator: Sketch 52.2 (67145) - http://www.bohemiancoding.com/sketch -->
    <title>Stockholm-icons / Shopping / Barcode-scan</title>
    <desc>Created with Sketch.</desc>
    <g id="Stockholm-icons-/-Shopping-/-Barcode-scan" stroke="none" stroke-width="1" fill="none" fill-rule="evenodd">
        <rect id="bound" x="0" y="0" width="24" height="24"></rect>
        <path d="M15,9 L13,9 L13,5 L15,5 L15,9 Z M15,15 L15,20 L13,20 L13,15 L15,15 Z M5,9 L2,9 L2,6 C2,5.44771525 2.44771525,5 3,5 L5,5 L5,9 Z M5,15 L5,20 L3,20 C2.44771525,20 2,19.5522847 2,19 L2,15 L5,15 Z M18,9 L16,9 L16,5 L18,5 L18,9 Z M18,15 L18,20 L16,20 L16,15 L18,15 Z M22,9 L20,9 L20,5 L21,5 C21.5522847,5 22,5.44771525 22,6 L22,9 Z M22,15 L22,19 C22,19.5522847 21.5522847,20 21,20 L20,20 L20,15 L22,15 Z" id="Combined-Shape" fill="#335EEA"></path>
        <path d="M9,9 L7,9 L7,5 L9,5 L9,9 Z M9,15 L9,20 L7,20 L7,15 L9,15 Z" id="Combined-Shape" fill="#335EEA" opacity="0.3"></path>
        <rect id="Rectangle-200" fill="#335EEA" opacity="0.3" x="0" y="11" width="24" height="2" rx="1"></rect>
    </g>
</svg>
